svg/black/exmo.svg

<svg xmlns="http://www.w3.org/2000/svg" width="32" height="32" viewBox="0 0 32 32">
  <path d="M16,32 C7.163444,32 0,24.836556 0,16 C0,7.163444 7.163444,0 16,0 C24.836556,0 32,7.163444 32,16 C32,24.836556 24.836556,32 16,32 Z M19.6990698,13.055 L19.172093,12 L18.072093,12.5 L15.1865116,20.2975 L16.2865116,19.7975 L16.8134884,20.8525 L16.8313953,20.805 L19.6990698,13.055 Z M26.8797674,13.2375 L26.9437209,13.055 L26.4193023,12 L25.3193023,12.5 L22.4516279,20.26 L22.3851163,20.4425 L23.4851163,19.9425 L24.012093,21 L26.8797674,13.2375 Z M20.7402326,19.95 L22.4286047,15.3875 L21.3260465,15.8875 L20.8016279,14.83 L19.1081395,19.3925 L19.6325581,20.45 L20.7402326,19.95 Z M11.6025581,15.45 L6.55790698,15.45 L7.41744186,16.25 L6.55790698,17.0625 L11.5974419,17.0625 L12.4544186,16.25 L11.6025581,15.45 Z M5.85953488,18.8325 L5,19.64 L5.85953488,20.445 L14.0148837,20.445 L13.157907,19.64 L14.0148837,18.8325 L5.85953488,18.8325 Z M8.36139535,12.065 L7.50186047,12.8725 L8.36139535,13.6775 L16.5116279,13.6775 L15.6572093,12.8725 L16.5116279,12.065 L8.36139535,12.065 Z"/>
</svg>

<svg xmlns="http://www.w3.org/2000/svg" width="32" height="32"><path d="M16 32C7.163 32 0 24.837 0 16S7.163 0 16 0s16 7.163 16 16-7.163 16-16 16zm3.7-18.945L19.171 12l-1.1.5-2.885 7.797 1.1-.5.526 1.055.018-.047 2.868-7.75zm7.18.183l.064-.183L26.419 12l-1.1.5-2.867 7.76-.067.182 1.1-.5.527 1.058 2.868-7.762zm-6.14 6.712l1.689-4.563-1.103.5-.524-1.057-1.694 4.562.525 1.058 1.107-.5zm-9.137-4.5H6.558l.86.8-.86.813h5.04l.856-.813-.851-.8zM5.86 18.833L5 19.64l.86.805h8.155l-.857-.805.857-.808H5.86zm2.501-6.768l-.86.808.86.805h8.15l-.854-.806.855-.807h-8.15z"/></svg>
